outputs/icons/communication/message_round.svg

<svg xmlns="http://www.w3.org/2000/svg" width="1200" height="1200" fill="none"><g clip-path="url(#a)"><path fill="#000" d="M1000 100H200c-55 0-99.5 45-99.5 100l-.5 900 200-200h700c55 0 100-45 100-100V200c0-55-45-100-100-100M650 700H350c-27.5 0-50-22.5-50-50s22.5-50 50-50h300c27.5 0 50 22.5 50 50s-22.5 50-50 50m200-150H350c-27.5 0-50-22.5-50-50s22.5-50 50-50h500c27.5 0 50 22.5 50 50s-22.5 50-50 50m0-150H350c-27.5 0-50-22.5-50-50s22.5-50 50-50h500c27.5 0 50 22.5 50 50s-22.5 50-50 50"/></g><defs><clipPath id="a"><path fill="#fff" d="M0 0h1200v1200H0z"/></clipPath></defs></svg>

<svg width="1200" height="1200" viewBox="0 0 1200 1200" fill="none" xmlns="http://www.w3.org/2000/svg"><g clip-path="url(#clip0_225_2420)"><path d="M1000 100H200C145 100 100.5 145 100.5 200L100 1100L300 900H1000C1055 900 1100 855 1100 800V200C1100 145 1055 100 1000 100ZM650 700H350C322.5 700 300 677.5 300 650C300 622.5 322.5 600 350 600H650C677.5 600 700 622.5 700 650C700 677.5 677.5 700 650 700ZM850 550H350C322.5 550 300 527.5 300 500C300 472.5 322.5 450 350 450H850C877.5 450 900 472.5 900 500C900 527.5 877.5 550 850 550ZM850 400H350C322.5 400 300 377.5 300 350C300 322.5 322.5 300 350 300H850C877.5 300 900 322.5 900 350C900 377.5 877.5 400 850 400Z" fill="#1D1E23"/></g><defs><clipPath id="clip0_225_2420"><path width="24" fill="white" d="M0 0H1200V1200H0V0z"/></clipPath></defs></svg>
